X: 10106
T: Differentiation
R: jig
M: 6/8
K: Eminor
~E3 EDE|FEG EAE|BEE B,EB,|CDE GAF|~E3 FEG|
EAE BEd|1 dee BdB|AGA ABG:|2 dee Bde|gaf e3||
~D3 FDG|DAD BDB|~c3 BAG|ABG ABF|~D3 FDG|
DAD cDd|1 ddd cd(B|B)dd _BdA:|2 ~d3 cde|fge d2 f||
~e3 ^geg|a^gf g2 e|^Gee Aee|Bee ^def|~e3 ^gfg|
a^gf g2 b|1 a^ge ^cee|Bee ^def:|2 a^ge ^def|~e3 e3||

